assets/whop/original.svg

<svg viewBox="0 0 383.2 196.4" xmlns="http://www.w3.org/2000/svg"><path d="m60.9 0c-25.2 0-42.5 11.1-55.7 23.5 0 0-5.3 5-5.2 5.2l55.2 55.2 55.2-55.2c-10.5-14.4-30.2-28.7-49.5-28.7m136.3 0c-25.2 0-42.5 11.1-55.7 23.5 0 0-4.8 4.9-5.1 5.2l-68.2 68.2 55.1 55.1 123.3-123.3c-10.5-14.4-30.1-28.7-49.4-28.7m136.6 0c-25.2 0-42.5 11.1-55.7 23.5 0 0-5 4.9-5.2 5.2l-136.5 136.5 14.4 14.4c22.3 22.3 58.9 22.3 81.3 0l150.9-150.9h.2c-10.4-14.4-30.1-28.7-49.4-28.7" fill="#fff"/></svg>

<svg xmlns="http://www.w3.org/2000/svg" viewBox="0 0 383.2 196.4"><path fill="#fff" d="M60.9 0C35.7 0 18.4 11.1 5.2 23.5c0 0-5.3 5-5.2 5.2l55.2 55.2 55.2-55.2C99.9 14.3 80.2 0 60.9 0m136.3 0c-25.2 0-42.5 11.1-55.7 23.5 0 0-4.8 4.9-5.1 5.2L68.2 96.9l55.1 55.1L246.6 28.7C236.1 14.3 216.5 0 197.2 0m136.6 0c-25.2 0-42.5 11.1-55.7 23.5 0 0-5 4.9-5.2 5.2L136.4 165.2l14.4 14.4c22.3 22.3 58.9 22.3 81.3 0L383 28.7h.2C372.8 14.3 353.1 0 333.8 0"/></svg>
